X: 76
T: No_16_Dance_of_the_Dog_Feast.krn
%%abc-version 2.0
%%abcx-abcm2ps-target-version 5.9.1 (29 Sep 2008)
%%abc-creator hum2abc beta
%%abcx-conversion-date 2020/08/10 18:54:57
%%gracespace 0 6 6
%%humdrum-veritas 669139450
%%humdrum-veritas-data 638041513
%%linebreak <none>
%%barnumbers 0
L: 1/8
M: 2/4
%%staves {1 2}
V: 1 clef=bass
V: 2 clef=bass
K: Bb
[V:1] [K:clef=bass][M:2/4]FD CD/C/ ||  
[V:2] [K:clef=bass][M:2/4]!accent!G,,2!accent!G,,2 ||  
[V:1] [M:4/4]B,B,B,4B,2 | 
[V:2] [M:4/4]!accent!G,,2!accent!G,,2!accent!G,,2!accent!G,,2 | 
[V:1] CCC6 ||  
[V:2] z8 ||  
[V:1] [M:2/4]FD CD/C/ ||  
[V:2] [M:2/4]z4 ||  
[V:1] [M:4/4]B,B,B,4G,2 | 
[V:2] [M:4/4]z8 | 
[V:1] B,B,B,6 ||  
[V:2] z8 ||  
[V:1] [M:2/4]DD {/D} CD/C/ ||  
[V:2] [M:2/4]z4 ||  
[V:1] [M:4/4]B,B,B,4B,3/G,/ | 
[V:2] [M:4/4]z8 | 
[V:1] F,F,F,>D, F,F,F,2 ||  
[V:2] z8 ||  
[V:1] [M:2/4]B,>G, G,3/G,/ ||  
[V:2] [M:2/4]z4 ||  
[V:1] [M:4/4]F,F,F,4F,3/D,/ ||  
[V:2] [M:4/4]z8 ||  
[V:1] [M:2/4]C,C, D,3/C,/ ||  
[V:2] [M:2/4]z4 ||  
[V:1] [M:4/4]B,,>B,,B,,6 |]  
[V:2] [M:4/4]z8 |]  


